dist/svg/u1F353.svg

<?xml version="1.0" encoding="UTF-8"?><svg id="Layer_1" xmlns="http://www.w3.org/2000/svg" viewBox="0 0 40 40"><g><g><path d="M26.10621,10.84199c0,3.06441-2.19186,5.78139-3.9507,7.46831-1.21457,1.16491-3.11074,1.16491-4.32531,0-1.75884-1.68692-3.9507-4.40391-3.9507-7.46831s2.19186-5.78139,3.9507-7.46831c1.21457-1.16491,3.11074-1.16491,4.32531,0,1.75884,1.68692,3.9507,4.40391,3.9507,7.46831Z" style="fill:#006956;"/><path d="M27.98274,16.27708c-2.09326,2.23805-5.54999,2.72513-7.98685,2.75571-1.68278,.02112-3.06762-1.27413-3.15893-2.95456-.13223-2.43346,.12291-5.91501,2.21617-8.15306,2.09326-2.23805,5.54999-2.72513,7.98685-2.75571,1.68278-.02112,3.06762,1.27413,3.15893,2.95456,.13223,2.43346-.12291,5.91501-2.21617,8.15306Z" style="fill:#006956;"/><path d="M12.20805,16.33692c2.12325,2.20962,5.58624,2.65004,8.02329,2.64775,1.68291-.00158,3.05016-1.31538,3.1188-2.9969,.0994-2.43502-.20267-5.91281-2.32591-8.12243s-5.58624-2.65004-8.02329-2.64775c-1.68291,.00158-3.05016,1.31538-3.1188,2.9969-.0994,2.43502,.20267,5.91281,2.32591,8.12243Z" style="fill:#006956;"/></g><path d="M5.44902,22.54552l6.89201,10.76399c3.57746,5.58731,11.74044,5.58731,15.31791,.00001l6.89203-10.76399c3.47459-5.42663-.12404-12.83263-6.23547-12.83263H11.6845c-6.11143,0-9.71006,7.40599-6.23548,12.83262Z" style="fill:#ef4452;"/><circle cx="12.63423" cy="16.586" r="1.12014" style="fill:#ffa082;"/><circle cx="20" cy="16.586" r="1.12014" style="fill:#ffa082;"/><circle cx="20" cy="29.88166" r="1.12014" style="fill:#ffa082;"/><circle cx="16.31711" cy="23.40929" r="1.12014" style="fill:#ffa082;"/><circle cx="23.68289" cy="23.40929" r="1.12014" style="fill:#ffa082;"/><circle cx="27.36577" cy="16.586" r="1.12014" style="fill:#ffa082;"/></g><rect width="40" height="40" style="fill:none;"/></svg>

<svg id="Layer_1" data-name="Layer 1" xmlns="http://www.w3.org/2000/svg" viewBox="0 0 40 40"><defs><style>.cls-1{fill:#006956;}.cls-2{fill:#ef4452;}.cls-3{fill:#ffa082;}.cls-4{fill:none;}</style></defs><path class="cls-1" d="M26.106,10.842c0,3.064-2.192,5.781-3.95,7.468a3.114,3.114,0,0,1-4.326,0c-1.759-1.687-3.951-4.4-3.951-7.468s2.192-5.781,3.951-7.468a3.114,3.114,0,0,1,4.326,0C23.914,5.061,26.106,7.778,26.106,10.842Z"/><path class="cls-1" d="M27.983,16.277C25.889,18.515,22.433,19,20,19.033a3.113,3.113,0,0,1-3.159-2.955c-.132-2.433.123-5.915,2.216-8.153S24.6,5.2,27.04,5.169A3.114,3.114,0,0,1,30.2,8.124C30.331,10.557,30.076,14.039,27.983,16.277Z"/><path class="cls-1" d="M12.208,16.337c2.123,2.21,5.586,2.65,8.023,2.648a3.115,3.115,0,0,0,3.119-3c.1-2.435-.2-5.913-2.326-8.123S15.438,5.215,13,5.218a3.113,3.113,0,0,0-3.119,3C9.783,10.65,10.085,14.127,12.208,16.337Z"/><path class="cls-2" d="M5.449,22.546,12.341,33.31a9.1,9.1,0,0,0,15.318,0l6.892-10.764c3.475-5.427-.124-12.833-6.236-12.833H11.685C5.573,9.713,1.974,17.119,5.449,22.546Z"/><circle class="cls-3" cx="12.634" cy="16.586" r="1.12"/><circle class="cls-3" cx="20" cy="16.586" r="1.12"/><circle class="cls-3" cx="20" cy="29.882" r="1.12"/><circle class="cls-3" cx="16.317" cy="23.409" r="1.12"/><circle class="cls-3" cx="23.683" cy="23.409" r="1.12"/><circle class="cls-3" cx="27.366" cy="16.586" r="1.12"/><rect class="cls-4" width="40" height="40"/></svg>
